X: 1
T: The Braes of Balluder
T: 8 x 32R 3C (Alexander Bowman, Campbell's 23rd Book)
P: The Sylph
C: Campbell's 23rd Book
C: arr. T. Traub 8-31-2005
M: 4/4
L: 1/8
K: G
|: d2|"G"BcBA G2 D2|GABc d2 g2|"G"BcBA "Em"G2 AB|"Am"c2 A2 "D"A4|"G"BcBA G2 D2|
"G"GABc defg|"Am"edcB "D"ABcd|"G"B2 G2 G2 :||: d2|"G"g3 a b2 ag|"D"a2 f2 d2 f2|
"G"g3 a "Em"b2 ag|"D"a2 d2 d2 z2|"G"gfga bagf |"C"edef gfed|"Am"e3 c "D"ABcd|"G"B2 G2 G2 :|
